X: 4159
M: C|
L: 1/8
K: D
|:\
(DE)FG A4 | GE=cE GEcE |\
d2(dA) dfed | =cdef g2(ge) |
dA A/A/A (df)ed | cAGE (E2{FE}D2) |\
afge dfed | cAGE (E2{FE}D2) |]


